X: 59
T: Soudainement mon cueur a pris
N: Derived from Bus3055-Soudainement_mon_cueur_a_pris.krn
C: Antoine Busnoys
%%abc-version 2.0
%%abcx-abcm2ps-target-version 5.9.1 (29 Sep 2008)
%%abc-creator hum2abc beta
%%abcx-conversion-date 2019/02/16 20:26:07
%%abc-edited-by Jesse Rodin
%%abc-edited-by Chris Gage 05-13-2015
%%abcx-initial-encoding-date 2016/02/08/
%%humdrum-veritas 3326514423
%%humdrum-veritas-data 1603840963
%%linebreak <none>
%%barnumbers 0
L: 1/4
M: 2/1
Q: 1/2=120
V: 1 clef=treble
V: 2 clef=treble-8
V: 3 clef=bass
K: F
[V:1] z8 | 
[V:2] z8 | 
[V:3] z8 | 
[V:1] z4D4 | 
[V:2] z4D4 | 
[V:3] z4A,4 | 
[V:1] F6G2 | 
[V:2] A6B2 | 
[V:3] C6B,2 | 
[V:1] A6B2 | 
[V:2] c4d4- | 
[V:3] A,4F,2D,2 | 
[V:1] A2GFE4 | 
[V:2] d4^c4 | 
[V:3] F,3G,A,4 | 
[V:1] z4A4 | 
[V:2] d8 | 
[V:3] D,8- | 
[V:1] A4A4 | 
[V:2] z4d4 | 
[V:3] D,4F,4 | 
[V:1] =B4c4 | 
[V:2] d4e4 | 
[V:3] G,4E,4 | 
[V:1] d4d4 | 
[V:2] f4f4 | 
[V:3] D,8- | 
[V:1] d6c=B | 
[V:2] f6ed | 
[V:3] D,8 | 
[V:1] A4=B4 | 
[V:2] c4d4 | 
[V:3] z4G,4 | 
[V:1] c6=BA | 
[V:2] A4e4 | 
[V:3] F,3G,A,3B, | 
[V:1] G4z4 | 
[V:2] e4f4 | 
[V:3] C4F,4- | 
[V:1] A6GF | 
[V:2] d8 | 
[V:3] F,2G,2A,4- | 
[V:1] E4D4 | 
[V:2] ^c4d4 | 
[V:3] A,4D,4- | 
[V:1] A4=B4 | 
[V:2] f4e4- | 
[V:3] D,4G,4 | 
[V:1] c4d3c | 
[V:2] e4d4 | 
[V:3] A,4B,4 | 
[V:1] =B3AA4- | 
[V:2] e4c4 | 
[V:3] C4A,4 | 
[V:1] A4^G4 | 
[V:2] =B8 | 
[V:3] E,8 | 
[V:1] A8- | 
[V:2] z4A4- | 
[V:3] F,8- | 
[V:1] A8 | 
[V:2] A2=Bcd4 | 
[V:3] F,4D,4 | 
[V:1] z8 | 
[V:2] A4d4- | 
[V:3] F,4G,4 | 
[V:1] A8 | 
[V:2] d4f4 | 
[V:3] D,8 | 
[V:1] G4E4 | 
[V:2] e4c4 | 
[V:3] z8 | 
[V:1] F4F4 | 
[V:2] d4d4 | 
[V:3] B,,8 | 
[V:1] E4F4- | 
[V:2] A8 | 
[V:3] C,4D,4- | 
[V:1] F2E2E4 | 
[V:2] A6G2 | 
[V:3] D,4A,,4 | 
[V:1] D4E4- | 
[V:2] F4E4 | 
[V:3] B,,4C,4 | 
[V:1] E4D4 | 
[V:2] F8 | 
[V:3] D,8 | 
[V:1] E8- | 
[V:2] E4z4 | 
[V:3] A,,8- | 
[V:1] E8 | 
[V:2] A8 | 
[V:3] A,,8 | 
[V:1] z8 | 
[V:2] B4B4 | 
[V:3] G,8 | 
[V:1] A8 | 
[V:2] c8 | 
[V:3] A,8 | 
[V:1] =B4B4 | 
[V:2] d8 | 
[V:3] G,6F,2 | 
[V:1] c8 | 
[V:2] e8 | 
[V:3] E,8 | 
[V:1] d6c=B | 
[V:2] f6ed | 
[V:3] D,8 | 
[V:1] A6GA | 
[V:2] c8 | 
[V:3] z4A,4 | 
[V:1] B2ABA2GF | 
[V:2] d6B2 | 
[V:3] G,4F,2D,2 | 
[V:1] E4F4 | 
[V:2] c4d2A2- | 
[V:3] E,4D,4 | 
[V:1] E2D4^C2 | 
[V:2] A2GFE4 | 
[V:3] z4G,4 | 
[V:1] D2F2G2A2- | 
[V:2] D4z2D2 | 
[V:3] F,2B,4A,2- | 
[V:1] A2B2A2GF | 
[V:2] F2G2A3B | 
[V:3] A,2G,2F,3G, | 
[V:1] E2D2E4 | 
[V:2] c2d4^c2 | 
[V:3] A,2B,2A,4 | 
[V:1] D8- | 
[V:2] d2B4G2- | 
[V:3] D,2G,4B,2 | 
[V:1] D8- | 
[V:2] G2F2G3F | 
[V:3] A,4G,4 | 
[V:1] D8- | 
[V:2] D8- | 
[V:3] A,2B,4A,2 | 
[V:1] D8 ]|:  
[V:2] D8 ]|:  
[V:3] A,8 ]|:  
[V:1]  [K:C] [K:clef=treble][M:2/1]z8 | 
[V:2]  [K:C] [K:clef=treble-8][M:2/1]z8 | 
[V:3]  [K:C] [K:clef=bass][M:2/1]A,,6B,,2 | 
[V:1] z8 | 
[V:2] z8 | 
[V:3] C,4D,4- | 
[V:1] z8 | 
[V:2] z8 | 
[V:3] D,2^C,2C,2B,,2 | 
[V:1] z8 | 
[V:2] A6_B2 | 
[V:3] D,4F,4 | 
[V:1] z8 | 
[V:2] c4d4- | 
[V:3] E,4D,4 | 
[V:1] z8 | 
[V:2] d2^c2^c2=B2 | 
[V:3] E,8 | 
[V:1] A6B2 | 
[V:2] d4f4 | 
[V:3] D,8 | 
[V:1] c4d4- | 
[V:2] e4d4 | 
[V:3] z8 | 
[V:1] d2^c2c2B2 | 
[V:2] e8 | 
[V:3] A,8 | 
[V:1] d4A4- | 
[V:2] d8 | 
[V:3] D,6E,2 | 
[V:1] A2G2F4 | 
[V:2] z4d4 | 
[V:3] F,4D,4 | 
[V:1] E4E4 | 
[V:2] c4c4 | 
[V:3] E,8 | 
[V:1] F4F4 | 
[V:2] d8 | 
[V:3] D,8 | 
[V:1] E4F2G2- | 
[V:2] A6_B2 | 
[V:3] z8 | 
[V:1] G2AGFED2 | 
[V:2] c4A2d2- | 
[V:3] C,4D,3B,, | 
[V:1] E4D4 | 
[V:2] d2c2d4 | 
[V:3] A,,4B,,4 | 
[V:1] G6FE | 
[V:2] e6c2 | 
[V:3] C,8 | 
[V:1] F6D2 | 
[V:2] d4z4 | 
[V:3] z4D,4- | 
[V:1] D8 | 
[V:2] f8 | 
[V:3] D,2B,,3C,D,2 | 
[V:1] z8 | 
[V:2] e4e4 | 
[V:3] A,,8 | 
[V:1] F8 | 
[V:2] d8 | 
[V:3] B,,8 | 
[V:1] E4E4 | 
[V:2] c4A4 | 
[V:3] C,8 | 
[V:1] D8 | 
[V:2] _B3AG3F | 
[V:3] _B,,8 | 
[V:1] C4F4 | 
[V:2] E4D4 | 
[V:3] C,4D,4 | 
[V:1] G6FE | 
[V:2] E6FG | 
[V:3] C,4B,,4 | 
[V:1] F6E2- | 
[V:2] A6G2- | 
[V:3] A,,4B,,2C,2- | 
[V:1] E2D4^C2 |[1 
[V:2] GDF2E4 | 
[V:3] C,2D,2A,,4 | 
[V:1] D8 :|] 
[V:2] D8 :|]  
[V:3] A,8 :|]  
[V:1] D2F3EG2- | 
[V:2] D4C4 | 
[V:3] A,2B,2C4 | 
[V:1] GFED^C3B, | 
[V:2] D2F2E4 | 
[V:3] A,2A,4G,2 | 
[V:1] D8 |]  
[V:2] D8 |]  
[V:3] A,8 |]  



